!!!SOCIAL_FUNCTION:	dream songs
!!!PDT:	1929
!!!OTL: No_155_I_Went_to_the_Edge_of_the_World.krn
!!!REG: Southwest
!!!LANG: Non-Tone
!!!LING_GROUP: Uto-Aztecan
**kern
*staff1
=1-
*clefF4
*k[f#c#]
*M3/4
2f#\
4e\
=2
4d\
4f#\
8.e\L
16d\Jk
=3||
*M2/4
8.d\L
16A\Jk
8A\
8r
=4
4B\
8.B\L
16A\Jk
=5
4B\
4B\
=6
(8.A\L
16F#\Jk)
8F#\
8r
=7
4B\
8.B\L
16A\Jk
=8
4B\
4B\
=9
8.A\L
16F#\Jk
4F#\
=10||
*M3/4
2.B\
=11
4A\
8F#\
8r
4B\
=12
4.A\
8F#\
4A\
=13
2.A\
=14
4A\
2r
==
*-
